src/apps/scalable/pyzologo.svg

<?xml version="1.0" encoding="UTF-8" standalone="no"?>
<svg
   width="128"
   height="128"
   viewBox="0 0 33.866666 33.866668"
   version="1.1"
   id="svg2117"
   inkscape:version="1.1.2 (0a00cf5339, 2022-02-04)"
   sodipodi:docname="pyzologo.svg"
   xmlns:inkscape="http://www.inkscape.org/namespaces/inkscape"
   xmlns:sodipodi="http://sodipodi.sourceforge.net/DTD/sodipodi-0.dtd"
   xmlns:xlink="http://www.w3.org/1999/xlink"
   xmlns="http://www.w3.org/2000/svg"
   xmlns:svg="http://www.w3.org/2000/svg"
   xmlns:rdf="http://www.w3.org/1999/02/22-rdf-syntax-ns#"
   xmlns:cc="http://creativecommons.org/ns#"
   xmlns:dc="http://purl.org/dc/elements/1.1/">
  <defs
     id="defs2111">
    <linearGradient
       inkscape:collect="always"
       id="linearGradient7029">
      <stop
         style="stop-color:#9bb013;stop-opacity:1;"
         offset="0"
         id="stop7025" />
      <stop
         style="stop-color:#0ab941;stop-opacity:1"
         offset="1"
         id="stop7027" />
    </linearGradient>
    <linearGradient
       inkscape:collect="always"
       id="linearGradient6907">
      <stop
         style="stop-color:#2aaddd;stop-opacity:1;"
         offset="0"
         id="stop6903" />
      <stop
         style="stop-color:#085eff;stop-opacity:0.96845526"
         offset="1"
         id="stop6905" />
    </linearGradient>
    <linearGradient
       inkscape:collect="always"
       id="linearGradient6823">
      <stop
         style="stop-color:#e83f3c;stop-opacity:1;"
         offset="0"
         id="stop6819" />
      <stop
         style="stop-color:#ff4d25;stop-opacity:0.96764547"
         offset="1"
         id="stop6821" />
    </linearGradient>
    <linearGradient
       inkscape:collect="always"
       xlink:href="#linearGradient1630"
       id="linearGradient912"
       gradientUnits="userSpaceOnUse"
       gradientTransform="matrix(0.97573207,0,0,0.97573207,-111.88908,-37.234129)"
       x1="132.21078"
       y1="42.151531"
       x2="132.21078"
       y2="70.679932" />
    <linearGradient
       id="linearGradient1630"
       inkscape:collect="always">
      <stop
         id="stop1626"
         offset="0"
         style="stop-color:#f8fcfc;stop-opacity:1;" />
      <stop
         id="stop1628"
         offset="1"
         style="stop-color:#e3e5e8;stop-opacity:1" />
    </linearGradient>
    <linearGradient
       id="linearGradient895">
      <stop
         id="stop3335"
         offset="0" />
      <stop
         id="stop3337"
         offset="1"
         stop-opacity="0" />
    </linearGradient>
    <linearGradient
       inkscape:collect="always"
       xlink:href="#linearGradient6823"
       id="linearGradient6825"
       x1="87.642883"
       y1="57.004612"
       x2="87.642883"
       y2="20.52272"
       gradientUnits="userSpaceOnUse" />
    <linearGradient
       inkscape:collect="always"
       xlink:href="#linearGradient6907"
       id="linearGradient6909"
       x1="21.333134"
       y1="30.289181"
       x2="93.526962"
       y2="119.34824"
       gradientUnits="userSpaceOnUse" />
    <linearGradient
       inkscape:collect="always"
       xlink:href="#linearGradient7029"
       id="linearGradient7031"
       x1="73.199471"
       y1="72.287193"
       x2="106.00896"
       y2="129.11491"
       gradientUnits="userSpaceOnUse" />
  </defs>
  <sodipodi:namedview
     id="base"
     pagecolor="#ffffff"
     bordercolor="#666666"
     borderopacity="1.0"
     inkscape:pageopacity="0.0"
     inkscape:pageshadow="2"
     inkscape:zoom="1.4"
     inkscape:cx="-193.57143"
     inkscape:cy="120.35714"
     inkscape:document-units="mm"
     inkscape:current-layer="layer1"
     inkscape:document-rotation="0"
     showgrid="false"
     units="px"
     inkscape:window-width="1920"
     inkscape:window-height="1007"
     inkscape:window-x="0"
     inkscape:window-y="0"
     inkscape:window-maximized="1"
     showguides="true"
     inkscape:guide-bbox="true"
     inkscape:pagecheckerboard="0">
    <sodipodi:guide
       position="33.898569,11.655842"
       orientation="0,-1"
       id="guide1374" />
  </sodipodi:namedview>
  <metadata
     id="metadata2114">
    <rdf:RDF>
      <cc:Work
         rdf:about="">
        <dc:format>image/svg+xml</dc:format>
        <dc:type
           rdf:resource="http://purl.org/dc/dcmitype/StillImage" />
      </cc:Work>
    </rdf:RDF>
  </metadata>
  <g
     inkscape:label="Capa 1"
     inkscape:groupmode="layer"
     id="layer1">
    <g
       style="opacity:0.139618"
       transform="matrix(0.97573206,0,0,0.97573206,-65.829986,-36.914633)"
       id="g1702">
      <rect
         ry="6.6098609"
         rx="6.6098609"
         y="40.709618"
         x="69.839508"
         height="29.810888"
         width="29.810888"
         id="rect1634"
         style="fill:none;fill-opacity:1;stroke:#000000;stroke-width:0.1;stroke-linecap:round;stroke-linejoin:round;stroke-miterlimit:4;stroke-dasharray:none;stroke-opacity:0.02" />
      <rect
         style="fill:none;fill-opacity:1;stroke:#000000;stroke-width:0.2;stroke-linecap:round;stroke-linejoin:round;stroke-miterlimit:4;stroke-dasharray:none;stroke-opacity:0.02"
         id="rect1638"
         width="29.810888"
         height="29.810888"
         x="69.839508"
         y="40.709618"
         rx="6.6098609"
         ry="6.6098609" />
      <rect
         ry="6.6098609"
         rx="6.6098609"
         y="40.709618"
         x="69.839508"
         height="29.810888"
         width="29.810888"
         id="rect1640"
         style="fill:none;fill-opacity:1;stroke:#000000;stroke-width:0.3;stroke-linecap:round;stroke-linejoin:round;stroke-miterlimit:4;stroke-dasharray:none;stroke-opacity:0.02" />
      <rect
         style="fill:none;fill-opacity:1;stroke:#000000;stroke-width:0.4;stroke-linecap:round;stroke-linejoin:round;stroke-miterlimit:4;stroke-dasharray:none;stroke-opacity:0.02"
         id="rect1642"
         width="29.810888"
         height="29.810888"
         x="69.839508"
         y="40.709618"
         rx="6.6098609"
         ry="6.6098609" />
      <rect
         ry="6.6098609"
         rx="6.6098609"
         y="40.709618"
         x="69.839508"
         height="29.810888"
         width="29.810888"
         id="rect1644"
         style="fill:none;fill-opacity:1;stroke:#000000;stroke-width:0.5;stroke-linecap:round;stroke-linejoin:round;stroke-miterlimit:4;stroke-dasharray:none;stroke-opacity:0.02" />
      <rect
         style="fill:none;fill-opacity:1;stroke:#000000;stroke-width:0.6;stroke-linecap:round;stroke-linejoin:round;stroke-miterlimit:4;stroke-dasharray:none;stroke-opacity:0.02"
         id="rect1646"
         width="29.810888"
         height="29.810888"
         x="69.839508"
         y="40.709618"
         rx="6.6098609"
         ry="6.6098609" />
      <rect
         ry="6.6098609"
         rx="6.6098609"
         y="40.709618"
         x="69.839508"
         height="29.810888"
         width="29.810888"
         id="rect1648"
         style="fill:none;fill-opacity:1;stroke:#000000;stroke-width:0.7;stroke-linecap:round;stroke-linejoin:round;stroke-miterlimit:4;stroke-dasharray:none;stroke-opacity:0.02" />
      <rect
         style="fill:none;fill-opacity:1;stroke:#000000;stroke-width:0.8;stroke-linecap:round;stroke-linejoin:round;stroke-miterlimit:4;stroke-dasharray:none;stroke-opacity:0.02"
         id="rect1650"
         width="29.810888"
         height="29.810888"
         x="69.839508"
         y="40.709618"
         rx="6.6098609"
         ry="6.6098609" />
      <rect
         ry="6.6098609"
         rx="6.6098609"
         y="40.709618"
         x="69.839508"
         height="29.810888"
         width="29.810888"
         id="rect1652"
         style="fill:none;fill-opacity:1;stroke:#000000;stroke-width:1;stroke-linecap:round;stroke-linejoin:round;stroke-miterlimit:4;stroke-dasharray:none;stroke-opacity:0.02" />
      <rect
         style="fill:none;fill-opacity:1;stroke:#000000;stroke-width:1.2;stroke-linecap:round;stroke-linejoin:round;stroke-miterlimit:4;stroke-dasharray:none;stroke-opacity:0.02"
         id="rect1654"
         width="29.810888"
         height="29.810888"
         x="69.839508"
         y="40.709618"
         rx="6.6098609"
         ry="6.6098609" />
      <rect
         ry="6.6098609"
         rx="6.6098609"
         y="40.709618"
         x="69.839508"
         height="29.810888"
         width="29.810888"
         id="rect1656"
         style="fill:none;fill-opacity:1;stroke:#000000;stroke-width:1.4;stroke-linecap:round;stroke-linejoin:round;stroke-miterlimit:4;stroke-dasharray:none;stroke-opacity:0.02" />
      <rect
         style="fill:none;fill-opacity:1;stroke:#000000;stroke-width:1.6;stroke-linecap:round;stroke-linejoin:round;stroke-miterlimit:4;stroke-dasharray:none;stroke-opacity:0.02"
         id="rect1658"
         width="29.810888"
         height="29.810888"
         x="69.839508"
         y="40.709618"
         rx="6.6098609"
         ry="6.6098609" />
      <rect
         ry="6.6098609"
         rx="6.6098609"
         y="40.709618"
         x="69.839508"
         height="29.810888"
         width="29.810888"
         id="rect1660"
         style="fill:none;fill-opacity:1;stroke:#000000;stroke-width:1.8;stroke-linecap:round;stroke-linejoin:round;stroke-miterlimit:4;stroke-dasharray:none;stroke-opacity:0.02" />
      <rect
         style="fill:none;fill-opacity:1;stroke:#000000;stroke-width:2;stroke-linecap:round;stroke-linejoin:round;stroke-miterlimit:4;stroke-dasharray:none;stroke-opacity:0.02"
         id="rect1662"
         width="29.810888"
         height="29.810888"
         x="69.839508"
         y="40.709618"
         rx="6.6098609"
         ry="6.6098609" />
      <rect
         ry="6.6098609"
         rx="6.6098609"
         y="40.709618"
         x="69.839508"
         height="29.810888"
         width="29.810888"
         id="rect1664"
         style="fill:none;fill-opacity:1;stroke:#000000;stroke-width:2.2;stroke-linecap:round;stroke-linejoin:round;stroke-miterlimit:4;stroke-dasharray:none;stroke-opacity:0.02" />
      <rect
         style="fill:none;fill-opacity:1;stroke:#000000;stroke-width:2.6;stroke-linecap:round;stroke-linejoin:round;stroke-miterlimit:4;stroke-dasharray:none;stroke-opacity:0.02"
         id="rect1666"
         width="29.810888"
         height="29.810888"
         x="69.839508"
         y="40.709618"
         rx="6.6098609"
         ry="6.6098609" />
      <rect
         ry="6.6098609"
         rx="6.6098609"
         y="40.709618"
         x="69.839508"
         height="29.810888"
         width="29.810888"
         id="rect1668"
         style="fill:none;fill-opacity:1;stroke:#000000;stroke-width:3;stroke-linecap:round;stroke-linejoin:round;stroke-miterlimit:4;stroke-dasharray:none;stroke-opacity:0.02" />
      <rect
         style="fill:none;fill-opacity:1;stroke:#000000;stroke-width:3.4;stroke-linecap:round;stroke-linejoin:round;stroke-miterlimit:4;stroke-dasharray:none;stroke-opacity:0.02"
         id="rect1670"
         width="29.810888"
         height="29.810888"
         x="69.839508"
         y="40.709618"
         rx="6.6098609"
         ry="6.6098609" />
      <rect
         ry="6.6098609"
         rx="6.6098609"
         y="40.709618"
         x="69.839508"
         height="29.810888"
         width="29.810888"
         id="rect1672"
         style="fill:none;fill-opacity:1;stroke:#000000;stroke-width:3.8;stroke-linecap:round;stroke-linejoin:round;stroke-miterlimit:4;stroke-dasharray:none;stroke-opacity:0.02" />
      <rect
         style="fill:none;fill-opacity:1;stroke:#000000;stroke-width:4.2;stroke-linecap:round;stroke-linejoin:round;stroke-miterlimit:4;stroke-dasharray:none;stroke-opacity:0.02"
         id="rect1674"
         width="29.810888"
         height="29.810888"
         x="69.839508"
         y="40.709618"
         rx="6.6098609"
         ry="6.6098609" />
      <rect
         ry="6.6098609"
         rx="6.6098609"
         y="40.709618"
         x="69.839508"
         height="29.810888"
         width="29.810888"
         id="rect1676"
         style="fill:none;fill-opacity:1;stroke:#000000;stroke-width:4.6;stroke-linecap:round;stroke-linejoin:round;stroke-miterlimit:4;stroke-dasharray:none;stroke-opacity:0.02" />
      <rect
         style="fill:none;fill-opacity:1;stroke:#000000;stroke-width:5;stroke-linecap:round;stroke-linejoin:round;stroke-miterlimit:4;stroke-dasharray:none;stroke-opacity:0.02"
         id="rect1678"
         width="29.810888"
         height="29.810888"
         x="69.839508"
         y="40.709618"
         rx="6.6098609"
         ry="6.6098609" />
    </g>
    <rect
       style="fill:url(#linearGradient912);fill-opacity:1;stroke-width:2.68769;stroke-linecap:round;stroke-linejoin:round"
       id="rect910"
       width="29.08744"
       height="29.08744"
       x="2.2835085"
       y="2.4875498"
       rx="6.4494534"
       ry="6.4494534" />
    <path
       id="rect1039"
       style="fill:url(#linearGradient6909);fill-opacity:1;stroke-width:10.1582;stroke-linecap:round;stroke-linejoin:round"
       d="m 36.347656,15.289062 c -11.970502,0 -21.607422,9.636921 -21.607422,21.607422 v 53.857422 c 0,11.970504 9.63692,21.607424 21.607422,21.607424 h 7.851563 0.185547 l 6.799948,0 c 4.666927,0 8.423829,-3.7569 8.423829,-8.42383 V 90.753906 36.896484 23.712891 c 0,-4.666927 -3.756902,-8.423829 -8.423829,-8.423829 l -6.799948,0 h -0.185547 z"
       sodipodi:nodetypes="ssssccssccssccs"
       transform="scale(0.26458333)" />
    <path
       id="rect1221"
       style="fill:url(#linearGradient6825);fill-opacity:1;stroke-width:10.1582;stroke-linecap:round;stroke-linejoin:round"
       d="m 72.903595,15.289062 c -4.666926,0 -8.423828,3.756902 -8.423828,8.423829 v 14.835937 12.695313 0.08594 c 0,4.666927 3.756902,8.425781 8.423828,8.425781 h 29.904995 c 4.66693,0 8.42579,-3.758854 8.42579,-8.425781 V 39.865234 c 0.0122,-0.334162 0.0195,-0.669608 0.0195,-1.007812 v -2.740234 c 0,-11.538438 -7.20638,-20.828126 -16.156254,-20.828126 H 92.84375 c -0.18579,0 -0.37045,0.0057 -0.554688,0.01367 -0.154929,-0.0084 -0.309697,-0.01367 -0.466796,-0.01367 z"
       transform="scale(0.26458333)"
       sodipodi:nodetypes="ssccsssscsssscss" />
    <path
       id="path1366"
       style="fill:url(#linearGradient7031);fill-opacity:1;stroke-width:10.1582;stroke-linecap:round;stroke-linejoin:round"
       d="M 72.904297 67.228516 C 68.237374 67.228516 64.480469 70.98737 64.480469 75.654297 L 64.480469 75.740234 L 64.480469 88.435547 L 64.480469 103.27148 C 64.480469 107.93841 68.237374 111.69531 72.904297 111.69531 L 83.326172 111.69531 L 83.326172 67.228516 L 72.904297 67.228516 z M 92.40625 67.228516 L 92.40625 111.68359 C 92.55173 111.68898 92.697195 111.69531 92.84375 111.69531 L 95.097656 111.69531 C 104.04753 111.69531 111.25391 102.40563 111.25391 90.867188 L 111.25391 88.126953 C 111.25391 87.78875 111.24647 87.453289 111.23438 87.119141 L 111.23438 75.654297 C 111.23437 70.98737 107.47552 67.228516 102.80859 67.228516 L 92.40625 67.228516 z "
       transform="scale(0.26458333)" />
    <rect
       style="fill:#000000;fill-opacity:0.47088924;stroke:none;stroke-width:1.578;stroke-linecap:round;stroke-linejoin:round;stroke-opacity:0.220093;paint-order:fill markers stroke"
       id="rect6370"
       width="8.2824183"
       height="1.5008254"
       x="5.6443915"
       y="8.0140123"
       rx="0.7504127"
       ry="0.7504127" />
    <rect
       style="fill:#000000;fill-opacity:0.47088924;stroke:none;stroke-width:1.578;stroke-linecap:round;stroke-linejoin:round;stroke-opacity:0.220093;paint-order:fill markers stroke"
       id="rect6546"
       width="8.2824183"
       height="1.5008254"
       x="5.6443915"
       y="11.964812"
       rx="0.7504127"
       ry="0.7504127" />
    <rect
       style="fill:#000000;fill-opacity:0.47088924;stroke:none;stroke-width:1.578;stroke-linecap:round;stroke-linejoin:round;stroke-opacity:0.220093;paint-order:fill markers stroke"
       id="rect6548"
       width="8.2824183"
       height="1.5008254"
       x="5.6443915"
       y="15.915612"
       rx="0.7504127"
       ry="0.7504127" />
    <rect
       style="fill:#000000;fill-opacity:0.47088924;stroke:none;stroke-width:1.578;stroke-linecap:round;stroke-linejoin:round;stroke-opacity:0.220093;paint-order:fill markers stroke"
       id="rect6550"
       width="8.2824183"
       height="1.5008254"
       x="5.6443915"
       y="19.866413"
       rx="0.7504127"
       ry="0.7504127" />
    <rect
       style="fill:#000000;fill-opacity:0.47088924;stroke:none;stroke-width:1.578;stroke-linecap:round;stroke-linejoin:round;stroke-opacity:0.220093;paint-order:fill markers stroke"
       id="rect6552"
       width="8.2824183"
       height="1.5008254"
       x="5.6443915"
       y="23.817213"
       rx="0.7504127"
       ry="0.7504127" />
    <path
       style="opacity:0.3;fill:none;stroke:#000000;stroke-width:0.54776px;stroke-linecap:round;stroke-linejoin:round"
       d="m 19.779598,11.517907 1.643277,-1.6432781 -1.643277,-1.64328"
       id="path20-3" />
    <path
       style="opacity:0.3;fill:none;stroke:#000000;stroke-width:0.54776px;stroke-linecap:round;stroke-linejoin:round"
       d="m 22.518395,11.517907 1.64328,-1.6432781 -1.64328,-1.64328"
       id="path22-6" />
    <path
       style="opacity:0.3;fill:none;stroke:#000000;stroke-width:0.54776px;stroke-linecap:round;stroke-linejoin:round"
       d="m 25.257192,11.517907 1.64328,-1.6432781 -1.64328,-1.64328"
       id="path24-7" />
  </g>
</svg>

<?xml version="1.0" encoding="UTF-8"?>
<svg id="svg2117" width="128" height="128" version="1.1" viewBox="0 0 33.867 33.867" xmlns="http://www.w3.org/2000/svg" xmlns:cc="http://creativecommons.org/ns#" xmlns:dc="http://purl.org/dc/elements/1.1/" xmlns:rdf="http://www.w3.org/1999/02/22-rdf-syntax-ns#" xmlns:xlink="http://www.w3.org/1999/xlink">
 <defs id="defs2111">
  <linearGradient id="linearGradient912" x1="132.21" x2="132.21" y1="42.152" y2="70.68" gradientTransform="matrix(.97573 0 0 .97573 -111.89 -37.234)" gradientUnits="userSpaceOnUse">
   <stop id="stop1626" stop-color="#f8fcfc" offset="0"/>
   <stop id="stop1628" stop-color="#e3e5e8" offset="1"/>
  </linearGradient>
  <linearGradient id="linearGradient6825" x1="87.643" x2="87.643" y1="57.005" y2="20.523" gradientUnits="userSpaceOnUse">
   <stop id="stop6819" stop-color="#e83f3c" offset="0"/>
   <stop id="stop6821" stop-color="#ff4d25" stop-opacity=".96765" offset="1"/>
  </linearGradient>
  <linearGradient id="linearGradient6909" x1="21.333" x2="93.527" y1="30.289" y2="119.35" gradientUnits="userSpaceOnUse">
   <stop id="stop6903" stop-color="#2aaddd" offset="0"/>
   <stop id="stop6905" stop-color="#085eff" stop-opacity=".96846" offset="1"/>
  </linearGradient>
  <linearGradient id="linearGradient7031" x1="73.199" x2="106.01" y1="72.287" y2="129.11" gradientUnits="userSpaceOnUse">
   <stop id="stop7025" stop-color="#9bb013" offset="0"/>
   <stop id="stop7027" stop-color="#0ab941" offset="1"/>
  </linearGradient>
 </defs>
 <metadata id="metadata2114">
  <rdf:RDF>
   <cc:Work rdf:about="">
    <dc:format>image/svg+xml</dc:format>
    <dc:type rdf:resource="http://purl.org/dc/dcmitype/StillImage"/>
   </cc:Work>
  </rdf:RDF>
 </metadata>
 <g id="layer1">
  <g id="g1702" transform="matrix(.97573 0 0 .97573 -65.83 -36.915)" fill="none" opacity=".13962" stroke="#000" stroke-linecap="round" stroke-linejoin="round" stroke-opacity=".02">
   <rect id="rect1634" x="69.84" y="40.71" width="29.811" height="29.811" rx="6.6099" ry="6.6099" stroke-width=".1"/>
   <rect id="rect1638" x="69.84" y="40.71" width="29.811" height="29.811" rx="6.6099" ry="6.6099" stroke-width=".2"/>
   <rect id="rect1640" x="69.84" y="40.71" width="29.811" height="29.811" rx="6.6099" ry="6.6099" stroke-width=".3"/>
   <rect id="rect1642" x="69.84" y="40.71" width="29.811" height="29.811" rx="6.6099" ry="6.6099" stroke-width=".4"/>
   <rect id="rect1644" x="69.84" y="40.71" width="29.811" height="29.811" rx="6.6099" ry="6.6099" stroke-width=".5"/>
   <rect id="rect1646" x="69.84" y="40.71" width="29.811" height="29.811" rx="6.6099" ry="6.6099" stroke-width=".6"/>
   <rect id="rect1648" x="69.84" y="40.71" width="29.811" height="29.811" rx="6.6099" ry="6.6099" stroke-width=".7"/>
   <rect id="rect1650" x="69.84" y="40.71" width="29.811" height="29.811" rx="6.6099" ry="6.6099" stroke-width=".8"/>
   <rect id="rect1652" x="69.84" y="40.71" width="29.811" height="29.811" rx="6.6099" ry="6.6099"/>
   <rect id="rect1654" x="69.84" y="40.71" width="29.811" height="29.811" rx="6.6099" ry="6.6099" stroke-width="1.2"/>
   <rect id="rect1656" x="69.84" y="40.71" width="29.811" height="29.811" rx="6.6099" ry="6.6099" stroke-width="1.4"/>
   <rect id="rect1658" x="69.84" y="40.71" width="29.811" height="29.811" rx="6.6099" ry="6.6099" stroke-width="1.6"/>
   <rect id="rect1660" x="69.84" y="40.71" width="29.811" height="29.811" rx="6.6099" ry="6.6099" stroke-width="1.8"/>
   <rect id="rect1662" x="69.84" y="40.71" width="29.811" height="29.811" rx="6.6099" ry="6.6099" stroke-width="2"/>
   <rect id="rect1664" x="69.84" y="40.71" width="29.811" height="29.811" rx="6.6099" ry="6.6099" stroke-width="2.2"/>
   <rect id="rect1666" x="69.84" y="40.71" width="29.811" height="29.811" rx="6.6099" ry="6.6099" stroke-width="2.6"/>
   <rect id="rect1668" x="69.84" y="40.71" width="29.811" height="29.811" rx="6.6099" ry="6.6099" stroke-width="3"/>
   <rect id="rect1670" x="69.84" y="40.71" width="29.811" height="29.811" rx="6.6099" ry="6.6099" stroke-width="3.4"/>
   <rect id="rect1672" x="69.84" y="40.71" width="29.811" height="29.811" rx="6.6099" ry="6.6099" stroke-width="3.8"/>
   <rect id="rect1674" x="69.84" y="40.71" width="29.811" height="29.811" rx="6.6099" ry="6.6099" stroke-width="4.2"/>
   <rect id="rect1676" x="69.84" y="40.71" width="29.811" height="29.811" rx="6.6099" ry="6.6099" stroke-width="4.6"/>
   <rect id="rect1678" x="69.84" y="40.71" width="29.811" height="29.811" rx="6.6099" ry="6.6099" stroke-width="5"/>
  </g>
  <rect id="rect910" x="2.2835" y="2.4875" width="29.087" height="29.087" rx="6.4495" ry="6.4495" fill="url(#linearGradient912)" stroke-linecap="round" stroke-linejoin="round" stroke-width="2.6877"/>
  <path id="rect1039" transform="scale(.26458)" d="m36.348 15.289c-11.971 0-21.607 9.6369-21.607 21.607v53.857c0 11.971 9.6369 21.607 21.607 21.607h8.0371 6.7999c4.6669 0 8.4238-3.7569 8.4238-8.4238v-80.225c0-4.6669-3.7569-8.4238-8.4238-8.4238h-6.7999-0.18555z" fill="url(#linearGradient6909)" stroke-linecap="round" stroke-linejoin="round" stroke-width="10.158"/>
  <path id="rect1221" transform="scale(.26458)" d="m72.904 15.289c-4.6669 0-8.4238 3.7569-8.4238 8.4238v27.617c0 4.6669 3.7569 8.4258 8.4238 8.4258h29.905c4.6669 0 8.4258-3.7589 8.4258-8.4258v-11.465c0.0122-0.33416 0.0195-0.66961 0.0195-1.0078v-2.7402c0-11.538-7.2064-20.828-16.156-20.828h-2.2539c-0.18579 0-0.37045 0.0057-0.55469 0.01367-0.15493-0.0084-0.3097-0.01367-0.4668-0.01367z" fill="url(#linearGradient6825)" stroke-linecap="round" stroke-linejoin="round" stroke-width="10.158"/>
  <path id="path1366" transform="scale(.26458)" d="m72.904 67.229c-4.6669 0-8.4238 3.7589-8.4238 8.4258v0.085937 12.695 14.836c0 4.6669 3.7569 8.4238 8.4238 8.4238h10.422v-44.467h-10.422zm19.502 0v44.455c0.14548 0.00539 0.29094 0.01172 0.4375 0.01172h2.2539c8.9499 0 16.156-9.2897 16.156-20.828v-2.7402c0-0.3382-0.00744-0.67366-0.01953-1.0078v-11.465c-1e-5 -4.6669-3.7589-8.4258-8.4258-8.4258h-10.402z" fill="url(#linearGradient7031)" stroke-linecap="round" stroke-linejoin="round" stroke-width="10.158"/>
  <rect id="rect6370" x="5.6444" y="8.014" width="8.2824" height="1.5008" rx=".75041" ry=".75041" fill-opacity=".47089" style="paint-order:fill markers stroke"/>
  <rect id="rect6546" x="5.6444" y="11.965" width="8.2824" height="1.5008" rx=".75041" ry=".75041" fill-opacity=".47089" style="paint-order:fill markers stroke"/>
  <rect id="rect6548" x="5.6444" y="15.916" width="8.2824" height="1.5008" rx=".75041" ry=".75041" fill-opacity=".47089" style="paint-order:fill markers stroke"/>
  <rect id="rect6550" x="5.6444" y="19.866" width="8.2824" height="1.5008" rx=".75041" ry=".75041" fill-opacity=".47089" style="paint-order:fill markers stroke"/>
  <rect id="rect6552" x="5.6444" y="23.817" width="8.2824" height="1.5008" rx=".75041" ry=".75041" fill-opacity=".47089" style="paint-order:fill markers stroke"/>
  <path id="path20-3" d="m19.78 11.518 1.6433-1.6433-1.6433-1.6433" fill="none" opacity=".3" stroke="#000" stroke-linecap="round" stroke-linejoin="round" stroke-width=".54776px"/>
  <path id="path22-6" d="m22.518 11.518 1.6433-1.6433-1.6433-1.6433" fill="none" opacity=".3" stroke="#000" stroke-linecap="round" stroke-linejoin="round" stroke-width=".54776px"/>
  <path id="path24-7" d="m25.257 11.518 1.6433-1.6433-1.6433-1.6433" fill="none" opacity=".3" stroke="#000" stroke-linecap="round" stroke-linejoin="round" stroke-width=".54776px"/>
 </g>
</svg>
